images/ico-bicro-emploi-local.svg

<svg xmlns="http://www.w3.org/2000/svg" width="25" height="25" fill="none" viewBox="0 0 25 25"><g id="marche/local"><g id="Group 16"><circle id="Ellipse 9" cx="16.25" cy="7.25" r="6.25" fill="#cce1f8"/><path id="Path 39 Copy" fill="#000638" d="M20.2609 13.1188C20.491 13.1188 20.6776 13.3053 20.6776 13.5354C20.6776 13.7512 20.5136 13.9286 20.3035 13.95L20.2609 13.9521L18.7194 13.952L18.7175 13.9698C18.6797 14.2036 18.5049 14.3808 18.2568 14.402L18.2063 14.4042C18.0878 14.4042 17.9694 14.3711 17.8359 14.309L17.7931 14.288L17.7362 14.2869C16.7243 14.2695 15.9494 14.3298 15.4196 14.4629L15.342 14.4834C14.5832 14.6943 13.9087 14.9836 13.3168 15.3196C12.943 15.532 12.4605 15.6471 11.8612 15.6741L11.7309 15.6785L9.22054 15.6776L8.8116 15.6696L8.66278 15.6694L8.58671 15.6715L8.52574 15.6755C8.50762 15.6772 8.49152 15.6792 8.47697 15.6815L8.43576 15.69L8.43734 15.6934L8.43879 15.7101L8.43708 15.8106L8.43121 15.925L8.4147 16.1564C8.41132 16.204 8.40872 16.2476 8.40692 16.2874L8.40389 16.396C8.40345 16.4614 8.40618 16.5133 8.4121 16.5548L8.41742 16.585L8.55538 16.5974L8.73991 16.6114L8.94229 16.6241L9.27912 16.6408L9.65565 16.6546L10.0878 16.6656L13.537 16.6656L13.543 17.4989L12.8156 17.5077L11.9187 17.5137L11.4094 17.514L10.8073 17.5107L10.4335 17.5061L10.0518 17.499L8.56398 17.4989C8.36601 17.4988 8.1925 17.4591 8.04834 17.3833L8.03776 17.377C7.86053 17.3527 7.71875 17.3249 7.61123 17.2937L7.57666 17.2832C6.80538 17.0365 5.63187 16.4782 4.98338 16.0721L4.89441 16.0152C4.42933 15.7106 4.00442 15.6877 3.89354 15.9018C3.69617 16.2828 3.70827 16.5453 3.89084 16.886C3.89812 16.8996 3.91896 16.9171 3.95176 16.938L4.00974 16.9718C4.02083 16.9778 4.03262 16.984 4.04508 16.9905L4.12773 17.031L4.22532 17.0756L4.33666 17.1237L4.52683 17.2016L4.66728 17.2567L4.8955 17.343L5.2262 17.4628L5.5783 17.5848L5.94219 17.7055L6.21708 17.7931L6.39903 17.8493L6.75438 17.9545L7.00869 18.0255C7.1841 18.0729 7.38223 18.146 7.63188 18.2526L7.94945 18.3935L8.77615 18.7759L8.90921 18.8364L9.15782 18.9468L9.38775 19.0448C9.49897 19.0911 9.60527 19.1335 9.70977 19.1732C10.0171 19.29 10.2937 19.3771 10.5462 19.4341C11.9875 19.7598 13.0172 19.7843 14.2105 19.4402C14.7548 19.2832 15.3868 19.0572 16.1058 18.7621L16.4439 18.621C16.5012 18.5967 16.5591 18.5719 16.6175 18.5468L16.974 18.391L17.3429 18.2254L17.8077 18.011L17.8914 18.011L17.8917 17.0828H18.7251L18.7248 18.9293L21.4227 18.9295C21.6384 18.9295 21.8158 19.0934 21.8372 19.3035L21.8393 19.3461C21.8393 19.5619 21.6754 19.7393 21.4653 19.7607L21.4227 19.7628H17.8917L17.8914 18.8903L17.8788 18.8966C17.3986 19.1176 16.946 19.3162 16.5208 19.4924L16.1631 19.638C16.1046 19.6613 16.0466 19.6842 15.9892 19.7066L15.6516 19.8358C15.2654 19.9801 14.9066 20.102 14.575 20.2016L14.4414 20.2409C13.096 20.6289 11.9298 20.6012 10.3625 20.247C10.0681 20.1804 9.75508 20.0819 9.41369 19.9521C9.22704 19.8812 9.03716 19.8032 8.82853 19.7123L8.56817 19.5967L7.4893 19.0998L7.31375 19.0229L7.15783 18.958C7.10894 18.9383 7.06304 18.9206 7.01986 18.9046L6.89815 18.8621C6.86011 18.8496 6.82451 18.8389 6.79105 18.8299L6.56106 18.7667L6.21778 18.6686L5.99127 18.6013L5.76756 18.5326L5.54746 18.4627L5.33178 18.3918L5.12133 18.32L4.91691 18.2475L4.71934 18.1744C4.68703 18.1622 4.65503 18.1499 4.62337 18.1377L4.43758 18.0641L4.26065 17.9903C4.23194 17.978 4.20364 17.9657 4.17576 17.9534L4.01363 17.8797L3.86238 17.8062C3.49853 17.623 3.24425 17.4437 3.1563 17.2796C2.84924 16.7065 2.82381 16.1551 3.1536 15.5184C3.55192 14.7495 4.48017 14.7787 5.28592 15.2767L5.35097 15.3181C5.83688 15.6363 6.78432 16.1031 7.50745 16.3761L7.56976 16.399L7.57079 16.3403L7.57353 16.2643L7.60274 15.8154L7.60483 15.7604L7.60546 15.7101C7.60546 15.3024 7.80809 15.0136 8.17012 14.8997L8.24259 14.8788C8.26642 14.8727 8.29015 14.8673 8.3144 14.8626L8.38941 14.8505L8.47145 14.8423L8.56438 14.8374L8.67205 14.8353L8.7983 14.8358L9.30913 14.8451L11.7211 14.8453C12.2449 14.8329 12.6399 14.7458 12.9053 14.595C13.554 14.2266 14.291 13.9106 15.1189 13.6805C15.7381 13.5085 16.6082 13.4346 17.7385 13.4534L18.013 13.4594L18.0201 13.4636L18.0331 13.4458C18.1237 13.3272 18.2545 13.2334 18.4147 13.1668L18.4762 13.1431L18.5441 13.1188H20.2609Z"/><path id="Oval Copy 6" fill="#000638" fill-rule="evenodd" d="M19.0645 18C19.0645 17.7239 19.2883 17.5 19.5645 17.5C19.8406 17.5 20.0645 17.7239 20.0645 18C20.0645 18.2761 19.8406 18.5 19.5645 18.5C19.2883 18.5 19.0645 18.2761 19.0645 18ZM19.7311 18C19.7311 17.908 19.6565 17.8333 19.5645 17.8333C19.4724 17.8333 19.3978 17.908 19.3978 18C19.3978 18.092 19.4724 18.1667 19.5645 18.1667C19.6565 18.1667 19.7311 18.092 19.7311 18Z" clip-rule="evenodd"/><path id="Path" fill="#000638" d="M10.7311 4.25C11.0926 4.25 11.4478 4.29908 11.7894 4.39475L11.9349 4.43859L11.679 5.23166C11.3756 5.13377 11.057 5.08333 10.7311 5.08333C9.02824 5.08333 7.64779 6.46379 7.64779 8.16667C7.64779 8.83628 8.14694 9.91869 8.97603 11.1772L9.1462 11.4311C9.17528 11.4738 9.20471 11.5167 9.23449 11.5597C9.60659 12.0976 10.0119 12.6304 10.38 13.0757L10.505 13.2252L10.6199 13.359L10.6489 13.392L10.7456 13.2865L10.8721 13.1444L10.9389 13.0679C11.3271 12.621 11.7534 12.0886 12.1448 11.5515L12.235 11.4267L12.409 11.1802L12.5744 10.9382C12.628 10.8583 12.6802 10.7792 12.7308 10.701L12.8778 10.469C13.4709 9.51372 13.8145 8.70412 13.8145 8.16667C13.8145 7.26941 13.4294 6.43593 12.7718 5.85517L12.6947 5.7893L13.2258 5.14712C14.1197 5.8864 14.6478 6.98382 14.6478 8.16667C14.6478 9.07972 14.0348 10.324 13.0144 11.7689L12.8183 12.0422L12.6903 12.2165L12.4984 12.4727L12.3077 12.721L12.1198 12.9595L11.9358 13.1863L11.8161 13.3301L11.642 13.5331L11.5301 13.6592L11.422 13.7774L11.3182 13.8869L11.2191 13.9873C11.1868 14.0192 11.1554 14.0494 11.125 14.078L11.0363 14.1584L10.9536 14.228C10.8208 14.3347 10.7142 14.3939 10.6422 14.3939C10.5673 14.3939 10.4595 14.3326 10.3269 14.222L10.2444 14.1498C10.2302 14.1368 10.2158 14.1233 10.2011 14.1094L10.1103 14.0205L10.0146 13.9212L9.9142 13.812L9.80955 13.6936L9.70102 13.5665L9.53179 13.3607L9.41523 13.2143L9.29611 13.0612L9.1135 12.8202L8.92728 12.5674L8.67561 12.2152L8.54918 12.0339C7.47126 10.4758 6.81445 9.13166 6.81445 8.16667C6.81445 6.00355 8.568 4.25 10.7311 4.25Z"/><path id="Oval" fill="#000638" fill-rule="evenodd" d="M8.81445 8.33333C8.81445 7.18274 9.74719 6.25 10.8978 6.25C12.0484 6.25 12.9811 7.18274 12.9811 8.33333C12.9811 9.48393 12.0484 10.4167 10.8978 10.4167C9.74719 10.4167 8.81445 9.48393 8.81445 8.33333ZM12.1478 8.33333C12.1478 7.64298 11.5881 7.08333 10.8978 7.08333C10.2074 7.08333 9.64779 7.64298 9.64779 8.33333C9.64779 9.02369 10.2074 9.58333 10.8978 9.58333C11.5881 9.58333 12.1478 9.02369 12.1478 8.33333Z" clip-rule="evenodd"/></g></g></svg>

<svg xmlns="http://www.w3.org/2000/svg" width="25" height="25" fill="none" viewBox="0 0 25 25"><circle cx="16.25" cy="7.25" r="6.25" fill="#CCE1F8"/><path fill="#000638" d="M20.26 13.119a.417.417 0 0 1 .043.831l-.042.002h-1.542l-.002.018a.5.5 0 0 1-.46.432l-.05.002a.9.9 0 0 1-.371-.095l-.043-.021-.057-.001c-1.012-.018-1.787.043-2.316.176l-.078.02c-.759.211-1.433.5-2.025.837-.374.212-.857.327-1.456.354l-.13.005-2.51-.001-.41-.008h-.148l-.076.002-.061.003-.049.006-.041.009.001.003.002.017-.002.1-.006.115-.016.231-.008.131-.003.109q0 .097.008.159l.005.03.138.012.185.014.202.013.337.017.377.014.432.01h3.449l.006.834-.727.009-.897.006h-.51l-.602-.003-.373-.005-.382-.007H8.564a1.1 1.1 0 0 1-.516-.116l-.01-.006a3 3 0 0 1-.427-.083l-.034-.01c-.772-.247-1.945-.806-2.594-1.212l-.089-.057c-.465-.304-.89-.327-1-.113-.198.38-.186.643-.003.984a.2.2 0 0 0 .06.052l.059.034.035.018.083.041.097.045.112.048.19.078.14.055.229.086.33.12.352.122.364.12.275.088.182.056.355.105.255.072c.175.047.373.12.623.227l.317.14.827.383.133.06.249.11.23.099q.166.069.322.128.46.175.836.261c1.442.326 2.471.35 3.665.006a19 19 0 0 0 1.895-.678l.338-.141.174-.074.356-.156.369-.166.465-.214h.083v-.928h.834v1.846h2.698c.215 0 .393.164.414.375l.002.042a.417.417 0 0 1-.374.415l-.042.002h-3.531v-.873l-.013.007q-.72.331-1.358.595l-.358.146-.174.069-.337.129q-.58.216-1.077.366l-.134.039c-1.345.388-2.511.36-4.078.006a7 7 0 0 1-.95-.295c-.186-.07-.376-.149-.584-.24l-.26-.115-1.08-.497-.175-.077-.156-.065-.138-.053-.122-.043-.107-.032-.23-.063-.343-.098-.227-.068-.223-.068-.22-.07-.216-.071-.21-.072-.205-.073-.198-.073-.096-.036-.185-.074-.177-.074-.085-.037-.162-.073-.152-.074c-.363-.183-.618-.362-.706-.526-.307-.574-.332-1.125-.002-1.762.398-.769 1.326-.74 2.132-.241l.065.041c.486.318 1.433.785 2.156 1.058l.063.023v-.059l.004-.076.029-.449.002-.055v-.05c0-.408.203-.696.565-.81l.073-.021.071-.016.075-.012.082-.009.093-.005.108-.002h.126l.511.01h2.412c.524-.012.919-.1 1.184-.25a9.8 9.8 0 0 1 2.214-.915c.62-.171 1.49-.245 2.62-.227l.274.006.007.005.013-.018a.9.9 0 0 1 .382-.28l.061-.023.068-.024z"/><path fill="#000638" fill-rule="evenodd" d="M19.065 18a.5.5 0 1 1 1 0 .5.5 0 0 1-1 0m.666 0a.167.167 0 1 0-.333 0 .167.167 0 0 0 .333 0" clip-rule="evenodd"/><path fill="#000638" d="M10.731 4.25q.545.001 1.058.145l.146.044-.256.793a3.083 3.083 0 0 0-4.031 2.935c0 .67.499 1.752 1.328 3.01l.17.254.088.129c.373.538.778 1.07 1.146 1.516l.125.15.115.133.029.033.097-.105.126-.143.067-.076c.388-.447.814-.98 1.206-1.516l.09-.125.174-.247.165-.242.157-.237.147-.232c.593-.955.937-1.765.937-2.302 0-.898-.386-1.731-1.043-2.312l-.077-.066.53-.642a3.9 3.9 0 0 1 1.423 3.02c0 .913-.613 2.157-1.634 3.602l-.196.273-.128.175-.192.256-.19.248-.188.239-.184.226-.12.144-.174.203-.112.126-.108.118-.104.11-.099.1-.094.091-.089.08-.082.07c-.133.107-.24.166-.312.166-.075 0-.182-.061-.315-.172l-.083-.072-.043-.04-.09-.09-.096-.099-.1-.109-.105-.118-.109-.128-.17-.205-.116-.147-.119-.153-.182-.24-.187-.254-.251-.352-.127-.181c-1.078-1.558-1.735-2.902-1.735-3.867a3.917 3.917 0 0 1 3.917-3.917"/><path fill="#000638" fill-rule="evenodd" d="M8.814 8.333a2.083 2.083 0 1 1 4.167 0 2.083 2.083 0 0 1-4.167 0m3.334 0a1.25 1.25 0 1 0-2.5 0 1.25 1.25 0 0 0 2.5 0" clip-rule="evenodd"/></svg>
